database-arrow-left.svg

<svg fill="currentColor" viewBox="0 0 24 24"><path d="M4 7c0-2.21 3.58-4 8-4s8 1.79 8 4-3.58 4-8 4-8-1.79-8-4m15.72 6.05c.18-.34.28-.69.28-1.05V9c0 2.21-3.58 4-8 4s-8-1.79-8-4v3c0 2.21 3.58 4 8 4 .65 0 1.28-.04 1.88-.11A5.99 5.99 0 0 1 19 13c.24 0 .5 0 .72.05m-6.62 4.91c-.36.04-.73.04-1.1.04-4.42 0-8-1.79-8-4v3c0 2.21 3.58 4 8 4 .46 0 .9 0 1.33-.06A6 6 0 0 1 13 19c0-.36.04-.7.1-1.04M18 18v-2l-3 3 3 3v-2h4v-2z"/></svg>

<svg  viewBox="0 0 24 24" fill="currentColor"><path  d="M4 7C4 4.79 7.58 3 12 3S20 4.79 20 7 16.42 11 12 11 4 9.21 4 7M19.72 13.05C19.9 12.71 20 12.36 20 12V9C20 11.21 16.42 13 12 13S4 11.21 4 9V12C4 14.21 7.58 16 12 16C12.65 16 13.28 15.96 13.88 15.89C14.93 14.16 16.83 13 19 13C19.24 13 19.5 13 19.72 13.05M13.1 17.96C12.74 18 12.37 18 12 18C7.58 18 4 16.21 4 14V17C4 19.21 7.58 21 12 21C12.46 21 12.9 21 13.33 20.94C13.12 20.33 13 19.68 13 19C13 18.64 13.04 18.3 13.1 17.96M18 18V16L15 19L18 22V20H22V18H18Z"/></svg>
